**harm	**harte	**timestamp	**phrase	**leadinstrument	**kern
*M4/4	*M4/4	*	*	*	*
*E:	*E:	*	*	*	*E:
1r;	N	0	.	r	1r;
=1	=1	=1	=1	=1	=1
*>A_intro	*>A_intro	*>A_intro	*>A_intro	*>A_intro	*>A_intro
1I	E:maj	1.727	newline	r	1E 1g# 1b
=2	=2	=2	=2	=2	=2
1I	E:maj	4.393	.	r	1E 1g# 1b
=3	=3	=3	=3	=3	=3
1I	E:maj	7.058	.	r	1E 1g# 1b
=4	=4	=4	=4	=4	=4
1I	E:maj	9.724	.	r	1E 1g# 1b
=5	=5	=5	=5	=5	=5
1I	E:maj	12.39	newline	r	1E 1g# 1b
=6	=6	=6	=6	=6	=6
1I	E:maj	15.033	.	r	1E 1g# 1b
=7	=7	=7	=7	=7	=7
1I	E:maj	17.677	.	r	1E 1g# 1b
=8	=8	=8	=8	=8	=8
1I	E:maj	20.321	.	r	1E 1g# 1b
=9	=9	=9	=9	=9	=9
*>B_verse	*>B_verse	*>B_verse	*>B_verse	*>B_verse	*>B_verse
2.I	E:maj	22.965	newline	voice	2E 2g# 2b
4IVc	A:maj/5	24.974	.	voice	4a 4cc# 4E
=10	=10	=10	=10	=10	=10
2.I	E:maj	25.644	.	voice	2E 2g# 2b
4IVc	A:maj/5	27.654	.	voice	4a 4cc# 4E
=11	=11	=11	=11	=11	=11
2.I	E:maj	28.324	.	voice	2E 2g# 2b
4IVc	A:maj/5	30.334	.	voice	4a 4cc# 4E
=12	=12	=12	=12	=12	=12
2.I	E:maj	31.004	.	voice	2E 2g# 2b
4IVc	A:maj/5	33.013	.	voice	4a 4cc# 4E
=13	=13	=13	=13	=13	=13
2.I	E:maj	33.683	newline	voice	2E 2g# 2b
4IVc	A:maj/5	35.63	.	voice	4a 4cc# 4E
=14	=14	=14	=14	=14	=14
2.I	E:maj	36.28	.	voice	2E 2g# 2b
4IVc	A:maj/5	38.227	.	voice	4a 4cc# 4E
=15	=15	=15	=15	=15	=15
2.I	E:maj	38.876	.	voice	2E 2g# 2b
4IVc	A:maj/5	40.823	.	voice	4a 4cc# 4E
=16	=16	=16	=16	=16	=16
2.I	E:maj	41.472	.	voice	2E 2g# 2b
4IVc	A:maj/5	43.419	.	voice	4a 4cc# 4E
=17	=17	=17	=17	=17	=17
*>C_prechorus	*>C_prechorus	*>C_prechorus	*>C_prechorus	*>C_prechorus	*>C_prechorus
1IV	A:maj	44.068	newline	voice	1A 1cc# 1ee
=18	=18	=18	=18	=18	=18
1IVm7	A:7	46.72	.	voice	1A 1cc# 1ee 1gg#
=19	=19	=19	=19	=19	=19
1Im7	E:7	49.371	.	voice	1E 1g# 1b 1dd#
=20	=20	=20	=20	=20	=20
1Im7	E:7	52.023	.	voice	1E 1g# 1b 1dd#
=21	=21	=21	=21	=21	=21
2ii7	F#:min7	54.674	newline	voice	2F# 2a 2cc# 2ee
2Ib	E:maj/3	56.009	.	voice	2e 2G# 2b
=22	=22	=22	=22	=22	=22
2IV	A:maj	57.344	.	voice	2A 2cc# 2ee
2V	B:maj	58.679	.	voice	2B 2dd# 2ff#
=23	=23	=23	=23	=23	=23
4I	E:maj	60.014	.	voice	4E 4g# 4b
4I	E:sus4	60.682	.	voice	4E 4g# 4b
4I	E:maj	61.349	.	voice	4E 4g# 4b
4I	E:sus2	62.017	.	voice	4E 4g# 4b
=24	=24	=24	=24	=24	=24
*>D_chorus	*>D_chorus	*>D_chorus	*>D_chorus	*>D_chorus	*>D_chorus
2.I	E:maj	62.684	newline	voice	2E 2g# 2b
4IVc	A:maj/5	64.758	.	voice	4a 4cc# 4E
=25	=25	=25	=25	=25	=25
2.I	E:maj	65.449	.	voice	2E 2g# 2b
4IVc	A:maj/5	67.523	.	voice	4a 4cc# 4E
=26	=26	=26	=26	=26	=26
2.I	E:maj	68.214	.	voice	2E 2g# 2b
4IVc	A:maj/5	70.288	.	voice	4a 4cc# 4E
=27	=27	=27	=27	=27	=27
2.I	E:maj	70.979	.	voice	2E 2g# 2b
4IVc	A:maj/5	73.053	.	voice	4a 4cc# 4E
=28	=28	=28	=28	=28	=28
*>A_trans	*>A_trans	*>A_trans	*>A_trans	*>A_trans	*>A_trans
4Ic	E:maj/5	73.744	newline	voice	4e 4g# 4B
2I	E:maj	74.407	.	voice	2E 2g# 2b
4-VII	D:maj	75.732	.	voice	4D 4f# 4a
=29	=29	=29	=29	=29	=29
2-VII	D:maj	76.395	.	voice	2D 2f# 2a
2-VIIe	D:maj/2	77.721	.	voice	2D 2f# 2a
=30	=30	=30	=30	=30	=30
4Ic	E:maj/5	79.047	.	voice	4e 4g# 4B
2I	E:maj	79.709	.	voice	2E 2g# 2b
4-VII	D:maj	81.035	.	voice	4D 4f# 4a
=31	=31	=31	=31	=31	=31
1I	E:maj	81.698	.	voice	1E 1g# 1b
=32	=32	=32	=32	=32	=32
*>B_verse	*>B_verse	*>B_verse	*>B_verse	*>B_verse	*>B_verse
2.I	E:maj	84.349	newline	voice	2E 2g# 2b
4IVc	A:maj/5	86.339	.	voice	4a 4cc# 4E
=33	=33	=33	=33	=33	=33
2.I	E:maj	87.002	.	voice	2E 2g# 2b
4IVc	A:maj/5	88.992	.	voice	4a 4cc# 4E
=34	=34	=34	=34	=34	=34
2.I	E:maj	89.655	.	voice	2E 2g# 2b
4IVc	A:maj/5	91.645	.	voice	4a 4cc# 4E
=35	=35	=35	=35	=35	=35
2.I	E:maj	92.308	.	voice	2E 2g# 2b
4IVc	A:maj/5	94.298	.	voice	4a 4cc# 4E
=36	=36	=36	=36	=36	=36
2.I	E:maj	94.961	newline	voice	2E 2g# 2b
4IVc	A:maj/5	96.906	.	voice	4a 4cc# 4E
=37	=37	=37	=37	=37	=37
2.I	E:maj	97.554	.	voice	2E 2g# 2b
4IVc	A:maj/5	99.498	.	voice	4a 4cc# 4E
=38	=38	=38	=38	=38	=38
2.I	E:maj	100.146	.	voice	2E 2g# 2b
4IVc	A:maj/5	102.091	.	voice	4a 4cc# 4E
=39	=39	=39	=39	=39	=39
2.I	E:maj	102.739	.	voice	2E 2g# 2b
4IVc	A:maj/5	104.683	.	voice	4a 4cc# 4E
=40	=40	=40	=40	=40	=40
*>C_prechorus	*>C_prechorus	*>C_prechorus	*>C_prechorus	*>C_prechorus	*>C_prechorus
1IV	A:maj	105.332	newline	voice	1A 1cc# 1ee
=41	=41	=41	=41	=41	=41
1IVm7	A:7	107.981	.	voice	1A 1cc# 1ee 1gg#
=42	=42	=42	=42	=42	=42
1Im7	E:7	110.63	.	voice	1E 1g# 1b 1dd#
=43	=43	=43	=43	=43	=43
1Im7	E:7	113.279	.	voice	1E 1g# 1b 1dd#
=44	=44	=44	=44	=44	=44
2ii7	F#:min7	115.928	newline	voice	2F# 2a 2cc# 2ee
2Ib	E:maj/3	117.264	.	voice	2e 2G# 2b
=45	=45	=45	=45	=45	=45
2IV	A:maj	118.599	.	voice	2A 2cc# 2ee
2V	B:sus4	119.934	.	voice	2B 2dd# 2ff#
=46	=46	=46	=46	=46	=46
4I	E:maj	121.269	.	voice	4E 4g# 4b
4I	E:sus4	121.936	.	voice	4E 4g# 4b
4I	E:maj	122.604	.	voice	4E 4g# 4b
4I	E:sus2	123.271	.	voice	4E 4g# 4b
=47	=47	=47	=47	=47	=47
*>D_chorus	*>D_chorus	*>D_chorus	*>D_chorus	*>D_chorus	*>D_chorus
2.I	E:maj	123.939	newline	voice	2E 2g# 2b
4IVc	A:maj/5	125.997	.	voice	4a 4cc# 4E
=48	=48	=48	=48	=48	=48
2.I	E:maj	126.683	.	voice	2E 2g# 2b
4IVc	A:maj/5	128.741	.	voice	4a 4cc# 4E
=49	=49	=49	=49	=49	=49
2.I	E:maj	129.427	.	voice	2E 2g# 2b
4IVc	A:maj/5	131.485	.	voice	4a 4cc# 4E
=50	=50	=50	=50	=50	=50
2.I	E:maj	132.171	.	voice	2E 2g# 2b
4IVc	A:maj/5	134.23	.	voice	4a 4cc# 4E
=51	=51	=51	=51	=51	=51
*>A_instrumental	*>A_instrumental	*>A_instrumental	*>A_instrumental	*>A_instrumental	*>A_instrumental
1I	E:maj	134.916	newline	trumpet	1E 1g# 1b
=52	=52	=52	=52	=52	=52
1I	E:maj	137.586	.	trumpet	1E 1g# 1b
=53	=53	=53	=53	=53	=53
1I	E:maj	140.255	.	trumpet	1E 1g# 1b
=54	=54	=54	=54	=54	=54
1I	E:maj	142.925	.	trumpet	1E 1g# 1b
=55	=55	=55	=55	=55	=55
1I	E:maj	145.595	newline	trumpet	1E 1g# 1b
=56	=56	=56	=56	=56	=56
1I	E:maj	148.248	.	trumpet	1E 1g# 1b
=57	=57	=57	=57	=57	=57
1I	E:maj	150.902	.	trumpet	1E 1g# 1b
=58	=58	=58	=58	=58	=58
1I	E:maj	153.555	.	trumpet	1E 1g# 1b
=59	=59	=59	=59	=59	=59
1I	E:maj	156.208	newline	trumpet	1E 1g# 1b
=60	=60	=60	=60	=60	=60
1I	E:maj	158.813	.	trumpet	1E 1g# 1b
=61	=61	=61	=61	=61	=61
1I	E:maj	161.419	.	trumpet	1E 1g# 1b
=62	=62	=62	=62	=62	=62
1I	E:maj	164.024	.	trumpet	1E 1g# 1b
=63	=63	=63	=63	=63	=63
*>C_prechorus	*>C_prechorus	*>C_prechorus	*>C_prechorus	*>C_prechorus	*>C_prechorus
1IV	A:maj	166.63	newline	voice	1A 1cc# 1ee
=64	=64	=64	=64	=64	=64
1IVm7	A:7	169.266	.	voice	1A 1cc# 1ee 1gg#
=65	=65	=65	=65	=65	=65
1Im7	E:7	171.902	.	voice	1E 1g# 1b 1dd#
=66	=66	=66	=66	=66	=66
1Im7	E:7	174.539	.	voice	1E 1g# 1b 1dd#
=67	=67	=67	=67	=67	=67
2ii7	F#:min7	177.175	newline	voice	2F# 2a 2cc# 2ee
2Ib	E:maj/3	178.525	.	voice	2e 2G# 2b
=68	=68	=68	=68	=68	=68
2IV	A:maj	179.875	.	voice	2A 2cc# 2ee
2V	B:sus4	181.225	.	voice	2B 2dd# 2ff#
=69	=69	=69	=69	=69	=69
4I	E:maj	182.575	.	voice	4E 4g# 4b
4I	E:sus4	183.249	.	voice	4E 4g# 4b
4I	E:maj	183.924	.	voice	4E 4g# 4b
4I	E:sus2	184.599	.	voice	4E 4g# 4b
=70	=70	=70	=70	=70	=70
*>D_chorus	*>D_chorus	*>D_chorus	*>D_chorus	*>D_chorus	*>D_chorus
2.I	E:maj	185.274	newline	voice	2E 2g# 2b
4IVc	A:maj/5	187.308	.	voice	4a 4cc# 4E
=71	=71	=71	=71	=71	=71
2.I	E:maj	187.986	.	voice	2E 2g# 2b
4IVc	A:maj/5	190.019	.	voice	4a 4cc# 4E
=72	=72	=72	=72	=72	=72
2.I	E:maj	190.697	.	voice	2E 2g# 2b
4IVc	A:maj/5	192.73	.	voice	4a 4cc# 4E
=73	=73	=73	=73	=73	=73
2.I	E:maj	193.408	.	voice	2E 2g# 2b
4IVc	A:maj/5	195.442	.	voice	4a 4cc# 4E
=74	=74	=74	=74	=74	=74
*>A2_outro	*>A2_outro	*>A2_outro	*>A2_outro	*>A2_outro	*>A2_outro
2.I	E:maj	196.12	newline	voice	2E 2g# 2b
4IVc	A:maj/5	198.131	.	voice	4a 4cc# 4E
=75	=75	=75	=75	=75	=75
2.I	E:maj	198.801	.	voice	2E 2g# 2b
4IVc	A:maj/5	200.812	.	voice	4a 4cc# 4E
=76	=76	=76	=76	=76	=76
1I	E:maj	201.483	.	voice	1E 1g# 1b
=77	=77	=77	=77	=77	=77
1I	E:maj	204.164	.	voice	1E 1g# 1b
=78	=78	=78	=78	=78	=78
1I	E:maj	206.846	newline	voice	1E 1g# 1b
=79	=79	=79	=79	=79	=79
1I	E:maj	209.459	.	voice	1E 1g# 1b
=80	=80	=80	=80	=80	=80
1I	E:maj	212.072	.	voice	1E 1g# 1b
=81	=81	=81	=81	=81	=81
1I	E:maj	214.685	.	voice	1E 1g# 1b
=82	=82	=82	=82	=82	=82
*>_fadeout	*>_fadeout	*>_fadeout	*>_fadeout	*>_fadeout	*>_fadeout
1I	E:maj	217.298	newline	voice	1E 1g# 1b
=83	=83	=83	=83	=83	=83
1I	E:maj	219.899	.	voice	1E 1g# 1b
=84	=84	=84	=84	=84	=84
1I	E:maj	222.5	.	voice	1E 1g# 1b
=85	=85	=85	=85	=85	=85
1I	E:maj	225.102	.	voice	1E 1g# 1b
=86	=86	=86	=86	=86	=86
1I	E:maj	227.703	newline	voice	1E 1g# 1b
=87	=87	=87	=87	=87	=87
1I	E:maj	230.23	.	voice	1E 1g# 1b
1r;	N	232.757	.	r	1r;
1r;	N	235.076	.	r	1r;
*-	*-	*-	*-	*-	*-
!!!OTL: Life Is A Carnival
!!!COC: The Band
!!!BillboardChartDate: 1971/11/20
!!!BillboardPeak: 72
!!!BillboardWeeksOnChart: 6
!!!SampleTargetRank: 77
!!!SampleActualRank: 75
!!!SampleID#: 0234
!!!RDF**harmony: **recip + pitch class of root + harmonic quality
!!!RDF**harte: Chris Harte's syntax, used by MIREX
!!!RDF**phrase: newline = linebreak in original McGill transcription
!!!RDF**timestamp: McGill audio timestamp in seconds
!!!RDF**leadinstrument: original McGill primary instrumentation annotation
!!!RDT: 2017/01/12/
!!!ENC: Nathaniel Condit-Schultz
!!!EST: Awating manual error checking and editing.
